static/img/menus/ico-air-mask.svg

<svg width="16" height="16" viewBox="0 0 16 16" fill="none" xmlns="http://www.w3.org/2000/svg">
<path d="M9.66667 7.7428C9.85076 7.7428 10 7.89204 10 8.07613C10 8.26023 9.85076 8.40946 9.66667 8.40946H6.33333C6.14924 8.40946 6 8.26023 6 8.07613C6 7.89204 6.14924 7.7428 6.33333 7.7428H9.66667Z" fill="currentColor"/>
<path d="M6.93814 6.38476C7.09387 6.28682 7.29969 6.33334 7.39778 6.48893L9.17251 9.31119C9.27038 9.46701 9.22348 9.67221 9.0677 9.77018C8.91188 9.86816 8.70608 9.8218 8.60806 9.66601L6.83397 6.8444C6.73603 6.68867 6.78256 6.48285 6.93814 6.38476Z" fill="currentColor"/>
<path d="M8.60805 6.48893C8.70607 6.33318 8.91188 6.28682 9.06769 6.38477C9.22352 6.48278 9.27051 6.68857 9.1725 6.8444L7.39776 9.66602C7.29968 9.82163 7.09387 9.86813 6.93813 9.77018C6.7826 9.67211 6.73612 9.46691 6.83396 9.3112L8.60805 6.48893Z" fill="currentColor"/>
<path d="M14.3333 7.7428C14.5174 7.7428 14.6667 7.89204 14.6667 8.07613C14.6667 8.26023 14.5174 8.40946 14.3333 8.40946H11C10.8159 8.40946 10.6667 8.26023 10.6667 8.07613C10.6667 7.89204 10.8159 7.7428 11 7.7428H14.3333Z" fill="currentColor"/>
<path d="M11.6048 6.38476C11.7605 6.28682 11.9663 6.33334 12.0644 6.48893L13.8392 9.31119C13.937 9.46701 13.8901 9.67221 13.7344 9.77018C13.5785 9.86816 13.3727 9.8218 13.2747 9.66601L11.5006 6.8444C11.4027 6.68867 11.4492 6.48285 11.6048 6.38476Z" fill="currentColor"/>
<path d="M13.2747 6.48893C13.3727 6.33318 13.5786 6.28682 13.7344 6.38477C13.8902 6.48278 13.9372 6.68857 13.8392 6.8444L12.0644 9.66602C11.9664 9.82163 11.7605 9.86813 11.6048 9.77018C11.4493 9.67211 11.4028 9.46691 11.5006 9.3112L13.2747 6.48893Z" fill="currentColor"/>
<path d="M5 7.7428C5.18409 7.7428 5.33333 7.89204 5.33333 8.07613C5.33333 8.26023 5.18409 8.40946 5 8.40946H1.66666C1.48257 8.40946 1.33333 8.26023 1.33333 8.07613C1.33333 7.89204 1.48257 7.7428 1.66666 7.7428H5Z" fill="currentColor"/>
<path d="M2.27148 6.38476C2.42721 6.28682 2.63303 6.33334 2.73112 6.48893L4.50586 9.31119C4.60372 9.46701 4.55682 9.67221 4.40104 9.77018C4.24522 9.86816 4.03942 9.8218 3.9414 9.66601L2.16732 6.8444C2.06937 6.68867 2.1159 6.48285 2.27148 6.38476Z" fill="currentColor"/>
<path d="M3.94139 6.48893C4.03942 6.33318 4.24523 6.28681 4.40103 6.38476C4.55687 6.48277 4.60385 6.68856 4.50585 6.8444L2.73111 9.66601C2.63303 9.82163 2.42722 9.86813 2.27147 9.77018C2.11594 9.67211 2.06946 9.4669 2.1673 9.31119L3.94139 6.48893Z" fill="currentColor"/>
<path d="M2.11953 1.35238C2.24582 1.21844 2.45694 1.21177 2.59088 1.33806C2.72477 1.46431 2.7307 1.67546 2.60456 1.80941L1.18073 3.31918L2.5974 4.73585C2.72757 4.86602 2.72757 5.07703 2.5974 5.2072C2.46721 5.33724 2.25617 5.33733 2.12604 5.2072L0.480859 3.56202C0.353394 3.43455 0.350056 3.22835 0.473697 3.09717L2.11953 1.35238Z" fill="currentColor"/>
<path d="M14.6667 3C14.8508 3 15 3.14924 15 3.33333C15 3.51743 14.8508 3.66667 14.6667 3.66667H0.666662C0.482567 3.66667 0.333328 3.51743 0.333328 3.33333C0.333328 3.14924 0.482567 3 0.666662 3H14.6667Z" fill="currentColor"/>
<path d="M13.4094 11.0904C13.5434 10.9644 13.7546 10.9709 13.8808 11.1048L15.526 12.8495C15.6496 12.9807 15.6463 13.1869 15.5188 13.3144L13.8736 14.9596C13.7434 15.0897 13.5324 15.0897 13.4023 14.9596C13.2721 14.8294 13.2721 14.6184 13.4023 14.4882L14.8183 13.0716L13.3951 11.5618C13.269 11.4278 13.2755 11.2166 13.4094 11.0904Z" fill="currentColor"/>
<path d="M15.3332 12.7524C15.5173 12.7524 15.6665 12.9016 15.6665 13.0857C15.6665 13.2698 15.5173 13.4191 15.3332 13.4191H1.33317C1.14907 13.4191 0.999832 13.2698 0.999832 13.0857C0.999832 12.9016 1.14907 12.7524 1.33317 12.7524H15.3332Z" fill="currentColor"/>
</svg>

<svg xmlns="http://www.w3.org/2000/svg" width="16" height="16" fill="none" viewBox="0 0 16 16"><path fill="currentColor" d="M9.667 7.743a.333.333 0 0 1 0 .666H6.333a.333.333 0 1 1 0-.666z"/><path fill="currentColor" d="M6.938 6.385a.334.334 0 0 1 .46.104L9.173 9.31a.333.333 0 1 1-.565.355L6.834 6.844a.334.334 0 0 1 .104-.46"/><path fill="currentColor" d="M8.608 6.489a.333.333 0 0 1 .564.355L7.398 9.666a.333.333 0 0 1-.564-.355zM14.333 7.743a.333.333 0 1 1 0 .666H11a.333.333 0 1 1 0-.666z"/><path fill="currentColor" d="M11.605 6.385a.333.333 0 0 1 .46.104l1.774 2.822a.333.333 0 0 1-.564.355L11.5 6.844a.334.334 0 0 1 .104-.46"/><path fill="currentColor" d="M13.275 6.489a.333.333 0 0 1 .564.355l-1.775 2.822a.333.333 0 0 1-.563-.355zM5 7.743a.333.333 0 0 1 0 .666H1.667a.333.333 0 1 1 0-.666z"/><path fill="currentColor" d="M2.271 6.385a.334.334 0 0 1 .46.104L4.506 9.31a.333.333 0 1 1-.565.355L2.167 6.844a.334.334 0 0 1 .104-.46"/><path fill="currentColor" d="M3.941 6.489a.333.333 0 0 1 .565.355L2.73 9.666a.333.333 0 0 1-.564-.355zM2.12 1.352a.334.334 0 1 1 .485.457L1.18 3.32l1.416 1.417a.333.333 0 1 1-.471.471L.481 3.562a.334.334 0 0 1-.007-.465z"/><path fill="currentColor" d="M14.667 3a.333.333 0 0 1 0 .667h-14a.333.333 0 0 1 0-.667zM13.41 11.09a.334.334 0 0 1 .47.015l1.646 1.745a.334.334 0 0 1-.007.464l-1.645 1.646a.333.333 0 0 1-.472-.472l1.416-1.416-1.423-1.51a.334.334 0 0 1 .014-.472"/><path fill="currentColor" d="M15.333 12.752a.333.333 0 1 1 0 .667h-14a.333.333 0 0 1 0-.667z"/></svg>
